assets/svg/volume-up.svg

<svg width="50px" height="50px" viewBox="0 0 50 50" version="1.1" xmlns="http://www.w3.org/2000/svg" xmlns:xlink="http://www.w3.org/1999/xlink">
    <defs>
        <path d="M36.0276308,46.8465253 C35.7854131,46.9413185 35.5162824,47 35.2471517,47 C34.1930564,47 33.3228671,46.1197775 33.3228671,45.0635104 C33.3228671,44.1878018 33.7759038,43.7048079 34.4935857,43.2804955 C34.9152238,43.0367415 35.3951736,42.8877808 35.8437248,42.6440269 C36.687001,42.1926307 37.5302772,41.6780391 38.3107563,41.1047659 C43.2358482,37.4439429 46.1514309,31.6705858 46.1514309,25.5 C46.1514309,19.3294142 43.2358482,13.5560571 38.3107563,9.8952341 C37.5302772,9.32196095 36.687001,8.80736931 35.8437248,8.35597313 C35.3951736,8.11221919 34.9152238,7.96325845 34.4935857,7.71950451 C33.7759038,7.29519211 33.3228671,6.81219819 33.3228671,5.93648961 C33.3228671,4.88022255 34.1930564,4 35.2471517,4 C35.5162824,4 35.7854131,4.0586815 36.0276308,4.1534747 C44.496277,7.81429771 50,16.2147806 50,25.5 C50,34.7852194 44.496277,43.1857023 36.0276308,46.8465253 Z M32.9909393,39.7415494 C32.7532071,39.8318287 32.4795909,39.8905102 32.2418588,39.8905102 C31.1608505,39.8905102 30.2906612,39.0148016 30.2906612,37.9585345 C30.2906612,37.1099097 30.7706109,36.5366366 31.4613797,36.1755196 C32.2732574,35.7512072 33.0223378,35.3855763 33.7445052,34.8439009 C36.7183996,32.6636574 38.4587781,29.1879068 38.4587781,25.5 C38.4587781,21.8120932 36.7183996,18.3363426 33.7445052,16.1560991 C33.0223378,15.6144237 32.2732574,15.2487928 31.4613797,14.8244804 C30.7706109,14.4633634 30.2906612,13.8900903 30.2906612,13.0414655 C30.2906612,11.9851984 31.1608505,11.1094898 32.2104602,11.1094898 C32.4795909,11.1094898 32.7532071,11.1681713 32.9909393,11.2584506 C38.6426841,13.6463363 42.3073473,19.361012 42.3073473,25.5 C42.3073473,31.638988 38.6426841,37.3536637 32.9909393,39.7415494 Z M29.9587333,32.6049759 C29.7165157,32.7268528 29.4473849,32.7584506 29.2051673,32.7584506 C28.1555575,32.7584506 27.2853683,31.9098257 27.2853683,30.8219609 C27.2853683,28.5243544 30.7706109,29.160823 30.7706109,25.5 C30.7706109,21.839177 27.2853683,22.4756456 27.2853683,20.1780391 C27.2853683,19.0901743 28.1555575,18.2415494 29.2051673,18.2415494 C29.4473849,18.2415494 29.7165157,18.2731472 29.9587333,18.3950241 C32.7801202,19.5144867 34.6146945,22.4756456 34.6146945,25.5 C34.6146945,28.5243544 32.7801202,31.4584296 29.9587333,32.6049759 Z M23.0779582,41.9488768 C23.0779582,43.0051438 22.2032834,43.8853664 21.1536736,43.8853664 C20.6423253,43.8853664 20.1623755,43.6732102 19.8035346,43.3075793 L9.79635776,33.2414445 L1.92428456,33.2414445 C0.8746748,33.2414445 0,32.3657359 0,31.3049549 L0,19.6950451 C0,18.6342641 0.8746748,17.7585555 1.92428456,17.7585555 L9.79635776,17.7585555 L19.8035346,7.69242074 C20.1623755,7.32678984 20.6423253,7.11463363 21.1536736,7.11463363 C22.2032834,7.11463363 23.0779582,7.99485618 23.0779582,9.05112324 L23.0779582,41.9488768 Z" id="path-1"></path>
    </defs>
</svg>

<svg width="50" height="50" xmlns="http://www.w3.org/2000/svg"><defs><path d="M36.028 46.847a2.166 2.166 0 01-.78.153c-1.055 0-1.925-.88-1.925-1.936 0-.876.453-1.36 1.17-1.784.422-.243.902-.392 1.35-.636a20.652 20.652 0 002.468-1.54A19.428 19.428 0 0046.15 25.5c0-6.17-2.915-11.944-7.84-15.605a20.652 20.652 0 00-2.467-1.539c-.449-.244-.929-.393-1.35-.636-.718-.425-1.171-.908-1.171-1.784 0-1.056.87-1.936 1.924-1.936.27 0 .538.059.78.153C44.498 7.814 50 16.215 50 25.5c0 9.285-5.504 17.686-13.972 21.347zm-3.037-7.105c-.238.09-.511.149-.75.149a1.946 1.946 0 01-1.95-1.932c0-.85.48-1.422 1.17-1.783.812-.425 1.561-.79 2.284-1.332a11.576 11.576 0 004.714-9.344c0-3.688-1.74-7.164-4.714-9.344-.723-.542-1.472-.907-2.284-1.332-.69-.36-1.17-.934-1.17-1.783 0-1.056.87-1.932 1.92-1.932.269 0 .542.06.78.15 5.652 2.387 9.316 8.102 9.316 14.241 0 6.139-3.664 11.854-9.316 14.242zm-3.032-7.137a1.672 1.672 0 01-.754.153c-1.05 0-1.92-.848-1.92-1.936 0-2.298 3.486-1.661 3.486-5.322 0-3.66-3.486-3.024-3.486-5.322 0-1.088.87-1.936 1.92-1.936.242 0 .512.031.754.153 2.821 1.12 4.656 4.08 4.656 7.105 0 3.024-1.835 5.958-4.656 7.105zm-6.881 9.344c0 1.056-.875 1.936-1.924 1.936-.512 0-.992-.212-1.35-.577L9.796 33.24H1.924C.874 33.241 0 32.366 0 31.305v-11.61c0-1.06.875-1.936 1.924-1.936h7.872L19.804 7.692a1.889 1.889 0 011.35-.577c1.05 0 1.924.88 1.924 1.936V41.95z" id="path-1"/></defs></svg>
